X: 7141
T: Christy Barry's
R: jig
M: 6/8
K: Gmajor
"G"~G3 BAG|"C"A2 B d2 e|"G"ged BAG|"D"~A3 BGE|
"G"~G3 BAG|"C"A2 B d2 e|"G"ged BAG|1 "D"AGF "G"~G3:|2 "D"AGF "G"GBd||
"G"~g3 gfg|"C"abg d2 e|"G/B"ged BAG|"D"~A3 BGE|
"G"~G3 BAG|"C"A2 B d2 e|"G/B"ged BAG|1 "D"AGF "G"GBd:|2 "D"AGF "G"~G3||

